.TRACK
.CHANNEL 0 Setup
T90 V31 L4 ^D0

.CHANNEL 1 kio_5_chone
O4 @38 P11,11 @E04
r8>d16c16<a+8a8g8a+8d8f8
g8r8a+8r8>d8r8f8r8
d8.c16<a+8g8f4a+8g16f16
g2f4g4
r8>c16<a+16g8d8e8g8d8f8
g8r8>c8r8<a8r8d8f8
d4.e8a8g8f8d8
e4a8>d8<a8r8a8r4
>d16c16<a+8a8g8a+8d8f8
g8r8a+8r8>d8r8f8r8
d8.c16<a+8g8f4a+8g16f16
g2f4g4
r8>c16<a+16g8d8e8g8d8f8
g8r8>c8r8<a8r8d8f8
d4.e8a8g8f8d8
e4a8>d8<a8r8a8r4
>d16c16<a+8a8g8a+8d8f8
g8r8a+8r8>d8r8f8r8
d8.c16<a+8g8f4a+8g16f16
g2f4g4
r8>c16<a+16g8d8e8g8d8f8
g8r8>c8r8<a8r8d8f8
d4.e8a8g8f8d8
e4a8>d8<a8r8a8r8/kio_5_chone/



.CHANNEL 2 kio_5_chtwo
O3 @36 P13,13 @E03
o2d16r16>d16r16<d16r16>d16r16<d16r16>d16r16<d16r16>d16r16
<d16r16>d16r16<d16r16>d16r16<d16r16>d16r16<d16r16>d16r16
<d16r16>d16r16<d16r16>d16r16<d16r16>d16r16<d16r16>d16r16
<d16r16>d16r16<d16r16>d16r16<d16r16>d16r16<d16r16>d16r16
<c16r16>c16r16<c16r16>c16r16<c16r16>c16r16<c16r16>c16r16
<c16r16>c16r16<c16r16>c16r16<c16r16>c16r16<c16r16>c16r16
<a+16r16a+16r16a+16r16a+16r16a+16r16a+16r16a+16r16a+16r16
a+16r16a+16r16a+16r16a+16r16b16r16b16r16c16r16>c16r16
<d16r16>d16r16<d16r16>d16r16<d16r16>d16r16<d16r16>d16r16
<d16r16>d16r16<d16r16>d16r16<d16r16>d16r16<d16r16>d16r16
<d16r16>d16r16<d16r16>d16r16<d16r16>d16r16<d16r16>d16r16
<d16r16>d16r16<d16r16>d16r16<d16r16>d16r16<d16r16>d16r16
<c16r16>c16r16<c16r16>c16r16<c16r16>c16r16<c16r16>c16r16
<c16r16>c16r16<c16r16>c16r16<c16r16>c16r16<c16r16>c16r16
<a+16r16a+16r16a+16r16a+16r16a+16r16a+16r16a+16r16a+16r16
a+16r16a+16r16a+16r16a+16r16b16r16b16r16c16r16>c16r16
<d16r16>d16r16<d16r16>d16r16<d16r16>d16r16<d16r16>d16r16
<d16r16>d16r16<d16r16>d16r16<d16r16>d16r16<d16r16>d16r16
<d16r16>d16r16<d16r16>d16r16<d16r16>d16r16<d16r16>d16r16
<d16r16>d16r16<d16r16>d16r16<d16r16>d16r16<d16r16>d16r16
<c16r16>c16r16<c16r16>c16r16<c16r16>c16r16<c16r16>c16r16
<c16r16>c16r16<c16r16>c16r16<c16r16>c16r16<c16r16>c16r16
<a+16r16a+16r16a+16r16a+16r16a+16r16a+16r16a+16r16a+16r16
a+16r16a+16r16a+16r16a+16r16b16r16b16r16c16r16>c16r16/kio_5_chtwo/

.CHANNEL 3 kio_5_chthree
O5 @15 P11,11 @E13



.CHANNEL 4 kio_5_chfour
O2 @15 P11,11 @E13



.CHANNEL 5 kio_5_chfive
O2 @36 P11,11 @E01




