.TRACK
.CHANNEL 0 Setup
T79 V31 L4 ^D0

.CHANNEL 1 ice_chone
O5 @36 P11,11 @E03
r2.>c16<a+16a16a+16
>c+16r8.d+16c+16c16c+16f16r8.f+16f16e16f16
>c16<a+16a16a+16>c16<a+16a16a+16>c+16r8.<a+16r16>c+16r16
c16r16<a+16r16g+16r16g+16a+16>c16r16<a+16r16g+16r16g+16a+16
>c16r16<a+16r16g+16r16g16r16f16r8.c16<a+16a16a+16
>c+16r8.d+16c+16c16c+16f16r8.f+16f16e16f16
>c16<a+16a16a+16>c16<a+16a16a+16>c+16r8.<a+16r16>c+16r16
c16r16<a+16r16g+16r16g+16a+16>c16r16<a+16r16g+16r16g+16a+16
>c16r16<a+16r16g+16r16g16r16f16r8.f16r16f+16r16
g+16r16g+16r16a+16g+16f+16f16d+16r8.f16r16f+16r16
g+16r16g+16r16a+16g+16f+16f16d+16r8.c+16r16d+16r16
f16r16f16r16f+16f16d+16c+16c16r8.c+16r16d+16r16
f16r16f16r16f+16f16d+16c+16c16r8.c16<a+16a16a+16
>c+16r8.d+16c+16c16c+16f16r8.f+16f16e16f16
>c16<a+16a16a+16>c16<a+16a16a+16>c+16r8.<a+16r16>c16r16
c+16r16c16r16<a+16r16a16r16a+16r16f16r16f+16r16d+16r16
c+16r8.c16c+16c16r16<a+16r8.a+16r16>c16r16
d16r8.<a+16r16>c16r16d16r16c16r16<a+16r16a16r16
g16r16a16r16a+16r16>c16r16<a16r16f16r16a+16r16>c16r16
d16r8.<a+16r16>c16r16d16r16c16r16<a+16r16a16r16
g16r16>c16r16<a16r16f16r16a+16r8.a+16r16>c16r16
d16r8.<a+16r16>c16r16d16r16c16r16<a+16r16a16r16
g16r16a16r16a+16r16>c16r16<a16r16f16r16a+16r16>c16r16
d16r8.<a+16r16>c16r16d16r16c16r16<a+16r16a16r16
g16r16>c16r16<a16r16f16r16a+16r8.>a+16r16>c16r16
d16r8.<a+16r16>c16r16d16r16c16r16<a+16r16a16r16
g16r16a16r16a+16r16>c16r16<a16r16f16r16a+16r16>c16r16
d16r8.<a+16r16>c16r16d16r16c16r16<a+16r16a16r16
g16r16>c16r16<a16r16f16r16a+16r8.a+16r16>c16r16
d16r8.<a+16r16>c16r16d16r16c16r16<a+16r16a16r16
g16r16a16r16a+16r16>c16r16<a16r16f16r16a+16r16>c16r16
d16r8.<a+16r16>c16r16d16r16c16r16<a+16r16a16r16
g16r16>c16r16<a16r16f16r16a+16




.CHANNEL 2 ice_chtwo
O2 @36 P11,11 @E03
o2a+16r16>f16r16<f16r16>f16r16<a+16r16>f16r16<f16r16>f16r16
<a+16r16>f16r16<f16r16>f16r16<a+16r16>f16r16<f16r16>f16r16
<a+16r16>f16r16<f16r16>f16r16<a+16r16>f16r16<a+16r16>f16r16
<f16r16>f16r16c16r16f16r16<f16r16>f16r16c16r16f16r16
<f16r16>f16r16c16r16f16r16<f16r16>f16r16<f16r16>f16r16
<a+16r16>f16r16<f16r16>f16r16<a+16r16>f16r16<f16r16>f16r16
<a+16r16>f16r16<f16r16>f16r16<a+16r16>f16r16<a+16r16>f16r16
<f16r16>f16r16c16r16f16r16<f16r16>f16r16c16r16f16r16
<f16r16>f16r16c16r16f16<e16f16r16>f16r16<f16r16>f16r16
<c+16r16>f16r16<f16r16>f16r16<g+16r16>g+16r16g+16r8.
<c+16r16>f16r16<f16r16>f16r16<g+16r16>g+16r16g+16r8.
<a+16r16>f16r16c+16r16f16r16f16r16a16r16a16r8.
<a+16r16>f16r16c+16r16f16r16f16r16a16r16a16r8.
<a+16r16>f16r16<f16r16>f16r16<a+16r16>f16r16<f16r16>f16r16
<a+16r16>f16r16<f16r16>f16r16<f+16r16>f+16r16<c+16r16>f+16r16
<a+16r16>f16r16c16r16d+16r16c+16r16f16r16d+16r16f+16r16
<f16r16>f16r16<f16r16>d+16r16<a+16r16>c+16r16<a+16r16f16r16
<a+16r16>a+16r16<f16r16>a+16r16<a+16r16>a+16r16<f16r16>a+16r16
<d+16r16>g16r16<e16r16>a+16r16<f16r16>>c16r16<<f16r16>>c16r16
<<a+16r16>a+16r16<f16r16>>d16r16<<a+16r16>a+16r16<f16r16>a+16r16
<d+16r16>a+16r16<f16r16>>c16r16<<a+16r16>a+16r16<f16r16>a+16r16
<a+16r16>>d16r16<<f16r16>a+16r16<a+16r16>>d16r16<<f16r16>a+16r16
<d+16r16>g16r16<e16r16>a+16r16<f16r16>a16r16<f16r16>a16r16
<a+16r16>a+16r16<f16r16>>d16r16<<a+16r16>a+16r16<f16r16>a+16r16
<d+16r16>g16r16<f16r16>a16r16<a+16r16>a+16r16<f16r16>a+16r16
<a+16r16>a+16r16<f16r16>a+16r16<a+16r16>>d16r16<<f16r16>a+16r16
<d+16r16>g16r16<e16r16>a+16r16<f16r16>a16r16<f16r16>a16r16
<a+16r16>a+16r16<f16r16>>d16r16<<a+16r16>a+16r16<f16r16>a+16r16
<d+16r16>g16r16<f16r16>a16r16<a+16r16>a+16r16<f16r16>a+16r16
<a+16r16>a+16r16<f16r16>>d16r16<<a+16r16>a+16r16<f16r16>a+16r16
<d+16r16>g16r16<e16r16>a+16r16<f16r16>>c16r16<<f16r16>>c16r16
<<a+16r16>>d16r16<<f16r16>>d16r16<<a+16r16>>d16r16<<f16r16>a+16r16
<d+16r16>g16r16<f16r16>a16r16<a+16r16>a+16r16<f16r16>a+16



.CHANNEL 3 ice_chthree
O4 @36 P10,10 @E03
r8c+16r8.c+16r8.c+16r8.c+16r8.
c+16r8.c+16r8.c+16r8.c+16r8.
c+16r8.c+16r8.c+16r8.c+16r8.
c16r8.c16r8.c16r8.c16r8.
c16r8.c16r8.c16r8.c16r8.
c+16r8.c+16r8.c+16r8.c+16r8.
c+16r8.c+16r8.c+16r8.c+16r8.
c16r8.c16r8.c16r8.c16r8.
c16r8.c16r8.c16r8.c16r8.
c+16r8.c+16r8.f+16r16f+16r4
r16c+16r8.c+16r8.f+16r16f+16
r4
r16c+16r8.c+16r8.f16r16f16r4
r16c+16r8.c+16
r8.f16r16f16r4
r16c+16r8.c+16r8.c+16r8.c+16r8.
c+16r8.c+16r8.c+16r8.c+16r8.
c+16r8.c16r8.c+16r8.d+16r8.
c+16r8.c16r8.<a+16r4.
r16>d16r8.d16r8.d16r8.d16r8.
<a+16r8.>c+16r8.f16r8.f16r8.
d16r8.f16r8.d16r8.d16r8.
d+16r8.f16r8.d16r8.d16r8.
f16r8.d16r8.f16r8.d16r8.
<a+16r8.>c+16r8.c16r8.c16r8.
d16r8.f16r8.d16r8.d16r8.
<a+16r8.>c16r8.d16r8.d16r8.
d16r8.d16r8.f16r8.d16r8.
<a+16r8.>c+16r8.c16r8.c16r8.
d16r8.f16r8.d16r8.d16r8.
<a+16r8.>c16r8.d16r8.d16r8.
d16r8.f16r8.d16r8.d16r8.
<a+16r8.>c+16r8.d+16r8.d+16r8.
f16r8.f16r8.f16r8.d16r8.
<a+16r8.>c16r8.d16r8.d16



icem4=<b16r16>f+16r16e16r16f+16r16<b16r16>f+16r16e16r16f+16r16'
.CHANNEL 4 ice_chfour
O2 @36 P10,10 @E03
o1b16r16>f+16r16e16r16f+16r16<b16r16>f+16r16e16r16f+16r16
[icem4]
[icem4]
[icem4]
[icem4]
[icem4]
[icem4]
[icem4]
[icem4]
[icem4]
[icem4]
[icem4]
[icem4]
[icem4]
[icem4]
[icem4]
[icem4]
[icem4]
[icem4]
[icem4]
[icem4]
[icem4]
[icem4]
[icem4]
[icem4]
[icem4]
[icem4]
[icem4]
[icem4]
[icem4]
[icem4]
[icem4]
<b16r16>f+16r16e16r16f+16r16<b16r16>f+16r16e16r16f+16

.CHANNEL 5
P0,0

