.TRACK
.CHANNEL 0 Setup
T75 V31 L4 ^D0

.CHANNEL 1 mm_chone
O2 @38 P11,11 @E04
o2f8&f32r64f16&f64a8&a32r64a16&a64>c8&c32r64c16&c64d8&d32r64c16&c64
<a+8&a+32r64a+16&a+64>d8&d32r64d16&d64f8&f32r64f16&f64g8&g32r64f16&f64
<f8&f32r64f16&f64a8&a32r64a16&a64>c8&c32r64c16&c64d8&d32r64c16&c64
<f8&f32r64f16&f64g8&g32r64g16&g64g+8&g+32r64g+16&g+64a8&a32r64a16&a64
a+8&a+32r64a+16&a+64>c+8&c+32r64d16&d64f8&f32r64f16&f64g8&g32r64f16&f64
<a+8&a+32r64a+16&a+64>c+8&c+32r64d16&d64f8&f32r64d16&d64<g+8&g+32r64
g16&g64
f8&f32r64>f16&f64<a8&a32r64a16&a64>c8&c32r64c16&c64d8&d32r64c16&c64
f8&f32r64<f16&f64g+8&g+32r64a16&a64>c8&c32r64<f16&f64>d8&d32r64c+16&c+64
c8&c32r64c16&c64e8&e32r64e16&e64c8&c32r64c16&c64<b8&b32r64b16&b64
a+8&a+32r64a+16&a+64>d8&d32r64d16&d64<a+8&a+32r64a16&a64g+16&g+64d+16&d+64
r64e16&e64
f8&f32r64f16&f64a8&a32r64a16&a64a+8&a+32r64a+16&a+64b8&b32r64b16&b64
>c8&c32r64c16&c64<a+8&a+32r64a+16&a+64a8&a32r64a16&a64g8&g32r64g16&g64
f8&f32r64f16&f64a8&a32r64a16&a64>c8&c32r64c16&c64d8&d32r64c16&c64
<a+8&a+32r64a+16&a+64>d8&d32r64d16&d64f8&f32r64f16&f64g8&g32r64f16&f64
<f8&f32r64f16&f64a8&a32r64a16&a64>c8&c32r64c16&c64d8&d32r64c16&c64
<f8&f32r64f16&f64g8&g32r64g16&g64g+8&g+32r64g+16&g+64a8&a32r64a16&a64
a+8&a+32r64a+16&a+64>c+8&c+32r64d16&d64f8&f32r64f16&f64g8&g32r64f16&f64
<a+8&a+32r64a+16&a+64>c+8&c+32r64d16&d64f8&f32r64d16&d64<g+8&g+32r64
g16&g64
f8&f32r64>f16&f64<a8&a32r64a16&a64>c8&c32r64c16&c64d8&d32r64c16&c64
f8&f32r64<f16&f64g+8&g+32r64a16&a64>c8&c32r64<f16&f64>d8&d32r64c+16&c+64
c8&c32r64c16&c64e8&e32r64e16&e64c8&c32r64c16&c64<b8&b32r64b16&b64
a+8&a+32r64a+16&a+64>d8&d32r64d16&d64<a+8&a+32r64a16&a64g+16&g+64d+16&d+64
r64e16&e64
f8&f32r64f16&f64a8&a32r64a16&a64a+8&a+32r64a+16&a+64b8&b32r64b16&b64
>c8&c32r64c16&c64<a+8&a+32r64a+16&a+64a8&a32r64a16&a64g8&g32r64g16&g64
f8&f32r64f16&f64a8&a32r64a16&a64>c8&c32r64c16&c64d8&d32r64c16&c64
<a+8&a+32r64a+16&a+64>d8&d32r64d16&d64f8&f32r64f16&f64g8&g32r64f16&f64
<f8&f32r64f16&f64a8&a32r64a16&a64>c8&c32r64c16&c64d8&d32r64c16&c64
<f8&f32r64f16&f64g8&g32r64g16&g64g+8&g+32r64g+16&g+64a8&a32r64a16&a64
a+8&a+32r64a+16&a+64>c+8&c+32r64d16&d64f8&f32r64f16&f64g8&g32r64f16&f64
<a+8&a+32r64a+16&a+64>c+8&c+32r64d16&d64f8&f32r64d16&d64<g+8&g+32r64
g16&g64
f8&f32r64>f16&f64<a8&a32r64a16&a64>c8&c32r64c16&c64d8&d32r64c16&c64
f8&f32r64<f16&f64g+8&g+32r64a16&a64>c8&c32r64<f16&f64>d8&d32r64c+16&c+64
c8&c32r64c16&c64e8&e32r64e16&e64c8&c32r64c16&c64<b8&b32r64b16&b64
a+8&a+32r64a+16&a+64>d8&d32r64d16&d64<a+8&a+32r64a16&a64g+16&g+64d+16&d+64
r64e16&e64
f8&f32r64f16&f64a8&a32r64a16&a64a+8&a+32r64a+16&a+64b8&b32r64b16&b64
>c8&c32r64c16&c64<a+8&a+32r64a+16&a+64a8&a32r64a16&a64g8&g32r64g16&g64
f8&f32r64f16&f64a8&a32r64a16&a64>c8&c32r64c16&c64d8&d32r64c16&c64
<a+8&a+32r64a+16&a+64>d8&d32r64d16&d64f8&f32r64f16&f64g8&g32r64f16&f64
<f8&f32r64f16&f64a8&a32r64a16&a64>c8&c32r64c16&c64d8&d32r64c16&c64
<f8&f32r64f16&f64g8&g32r64g16&g64g+8&g+32r64g+16&g+64a8&a32r64a16&a64
a+8&a+32r64a+16&a+64>c+8&c+32r64d16&d64f8&f32r64f16&f64g8&g32r64f16&f64
<a+8&a+32r64a+16&a+64>c+8&c+32r64d16&d64f8&f32r64d16&d64<g+8&g+32r64
g16&g64
f8&f32r64>f16&f64<a8&a32r64a16&a64>c8&c32r64c16&c64d8&d32r64c16&c64
f8&f32r64<f16&f64g+8&g+32r64a16&a64>c8&c32r64<f16&f64>d8&d32r64c+16&c+64
c8&c32r64c16&c64e8&e32r64e16&e64c8&c32r64c16&c64<b8&b32r64b16&b64
a+8&a+32r64a+16&a+64>d8&d32r64d16&d64<a+8&a+32r64a16&a64g+16&g+64d+16&d+64
r64e16&e64
f8&f32r64f16&f64a8&a32r64a16&a64a+8&a+32r64a+16&a+64b8&b32r64b16&b64
>c8&c32r64c16&c64<a+8&a+32r64a+16&a+64a8&a32r64a16&a64g8&g32r64g16&g64




.CHANNEL 2 mm_chtwo
O4 @36 P9,9 @E03
r8r32.c16&c64r8r32.c16&c64r8r32.c16&c64r8r32.c16&c64
r8r32.<a+16&a+64r8r32.a+16&a+64r8r32.a+16&a+64r8r32.a+16&a+64
r8r32.>c16&c64r8r32.c16&c64r8r32.c16&c64r8r32.c16&c64
r8r32.c16&c64r8r32.c16&c64r8r32.c16&c64r8r32.c16&c64
r8r32.<a+16&a+64r8r32.a+16&a+64r8r32.a+16&a+64r8r32.a+16&a+64
r8r32.a+16&a+64r8r32.a+16&a+64r8r32.a+16&a+64r8r32.a+16&a+64
r8r32.>c16&c64r8r32.c16&c64r8r32.c16&c64r8r32.c16&c64
r8r32.c16&c64r8r32.c16&c64r8r32.c16&c64r8r32.c16&c64
r8r32.c16&c64r8r32.c16&c64r8r32.c16&c64r8r32.c16&c64
r8r32.<a+16&a+64r8r32.a+16&a+64r8r32.a+16&a+64r8r32.a+16&a+64
r8r32.>c16&c64r8r32.c16&c64r8r32.c16&c64r8r32.c16&c64
r8r32.c16&c64r8r32.c16&c64r8r32.c16&c64r8r32.c16&c64
r8r32.c16&c64r8r32.c16&c64r8r32.c16&c64r8r32.c16&c64
r8r32.<a+16&a+64r8r32.a+16&a+64r8r32.a+16&a+64r8r32.a+16&a+64
r8r32.>c16&c64r8r32.c16&c64r8r32.c16&c64r8r32.c16&c64
r8r32.c16&c64r8r32.c16&c64r8r32.c16&c64r8r32.c16&c64
r8r32.<a+16&a+64r8r32.a+16&a+64r8r32.a+16&a+64r8r32.a+16&a+64
r8r32.a+16&a+64r8r32.a+16&a+64r8r32.a+16&a+64r8r32.a+16&a+64
r8r32.>c16&c64r8r32.c16&c64r8r32.c16&c64r8r32.c16&c64
r8r32.c16&c64r8r32.c16&c64r8r32.c16&c64r8r32.c16&c64
r8r32.c16&c64r8r32.c16&c64r8r32.c16&c64r8r32.c16&c64
r8r32.<a+16&a+64r8r32.a+16&a+64r8r32.a+16&a+64r8r32.a+16&a+64
r8r32.>c16&c64r8r32.c16&c64r8r32.c16&c64r8r32.c16&c64
r8r32.c16&c64r8r32.c16&c64r8r32.c16&c64r8r32.c16&c64
r8r32.c16&c64r8r32.c16&c64r8r32.c16&c64r8r32.c16&c64
r8r32.<a+16&a+64r8r32.a+16&a+64r8r32.a+16&a+64r8r32.a+16&a+64
r8r32.>c16&c64r8r32.c16&c64r8r32.c16&c64r8r32.c16&c64
r8r32.c16&c64r8r32.c16&c64r8r32.c16&c64r8r32.c16&c64
r8r32.<a+16&a+64r8r32.a+16&a+64r8r32.a+16&a+64r8r32.a+16&a+64
r8r32.a+16&a+64r8r32.a+16&a+64r8r32.a+16&a+64r8r32.a+16&a+64
r8r32.>c16&c64r8r32.c16&c64r8r32.c16&c64r8r32.c16&c64
r8r32.c16&c64r8r32.c16&c64r8r32.c16&c64r8r32.c16&c64
r8r32.c16&c64r8r32.c16&c64r8r32.c16&c64r8r32.c16&c64
r8r32.<a+16&a+64r8r32.a+16&a+64r8r32.a+16&a+64r8r32.a+16&a+64
r8r32.>c16&c64r8r32.c16&c64r8r32.c16&c64r8r32.c16&c64
r8r32.c16&c64r8r32.c16&c64r8r32.c16&c64r8r32.c16&c64
r8r32.c16&c64r8r32.c16&c64r8r32.c16&c64r8r32.c16&c64
r8r32.<a+16&a+64r8r32.a+16&a+64r8r32.a+16&a+64r8r32.a+16&a+64
r8r32.>c16&c64r8r32.c16&c64r8r32.c16&c64r8r32.c16&c64
r8r32.c16&c64r8r32.c16&c64r8r32.c16&c64r8r32.c16&c64
r8r32.<a+16&a+64r8r32.a+16&a+64r8r32.a+16&a+64r8r32.a+16&a+64
r8r32.a+16&a+64r8r32.a+16&a+64r8r32.a+16&a+64r8r32.a+16&a+64
r8r32.>c16&c64r8r32.c16&c64r8r32.c16&c64r8r32.c16&c64
r8r32.c16&c64r8r32.c16&c64r8r32.c16&c64r8r32.c16&c64
r8r32.c16&c64r8r32.c16&c64r8r32.c16&c64r8r32.c16&c64
r8r32.<a+16&a+64r8r32.a+16&a+64r8r32.a+16&a+64r8r32.a+16&a+64
r8r32.>c16&c64r8r32.c16&c64r8r32.c16&c64r8r32.c16&c64
r8r32.c16&c64r8r32.c16&c64r8r32.c16&c64r8r32.c16&c64



.CHANNEL 3 mm_chthree
O5 @15 P11,11 @E13
r4>a8&a32r64a16&a64g+32a8r64a16&a64f8&f32r64d16&d64
r4g32g+8r64g+16&g+64g32g+8r64g+16&g+64c8&c32r64d16&d64
f8&f32r16.g+32a8r64a+16&a+64g+32a32.f16&f64r64c16&c64<a+8&a+32r64g+16&g+64
a16&a64>f16&f64r1
r16.g32g+8r64g+16&g+64g32g+8r64g+16&g+64
f8&f32r64d16&d64
r8r32.>d16&d64<g32g+8r64g+16&g+64a+8&a+32r64>c16&c64<g32g+8r64f16&f64
r16r64<a+16&a+64r64>c16&c64g+32a8r64a+16&a+64a32r64a+32a32.a+32r64f32
c32.<a+16&a+64>c16&c64r64<f16&f64
g+16&g+64a16&a64r2.r8
r32.>a+16&a+64r64g+16&g+64a+16&a+64
g+16&g+64r64a+16&a+64g+16&g+64a+16&a+64r64>c16&c64<g32g+8r64>f16&f64
r16r64g+16&g+64r64f16&f64d+16&d+64c16&c64r64<b16&b64a+16&a+64g+16&g+64
r64f16&f64d+16&d+64f16&f64r8
r32.>d+16&d+64r64d16&d64<b32
>c8r64<a+16&a+64a32r64a+32b32.a+32r64g+16&g+64f16&f64d16&d64r64c16&c64
r16r64c16&c64r64c16&c64c16&c64d16&d64r64f16&f64g+16&g+64f16&f64r64g+16&g+64
f16e64d+32d64c+64c+64r64c64r4
r16a8&a32r64a16&a64g+32a8r64
a16&a64f8&f32r64d16&d64
r4g32g+8r64g+16&g+64g32g+8r64g+16&g+64c8&c32r64d16&d64
f8&f32r16.g+32a8r64a+16&a+64g+32a32.f16&f64r64c16&c64<a+8&a+32r64g+16&g+64
a16&a64>f16&f64r1
r16.g32g+8r64g+16&g+64g32g+8r64g+16&g+64
f8&f32r64d16&d64
r8r32.>d16&d64<g32g+8r64g+16&g+64a+8&a+32r64>c16&c64<g32g+8r64f16&f64
r16r64<a+16&a+64r64>c16&c64g+32a8r64a+16&a+64a32r64a+32a32.a+32r64f32
c32.<a+16&a+64>c16&c64r64<f16&f64
g+16&g+64a16&a64r2.r8
r32.>a+16&a+64r64g+16&g+64a+16&a+64
g+16&g+64r64a+16&a+64g+16&g+64a+16&a+64r64>c16&c64<g32g+8r64>f16&f64
r16r64g+16&g+64r64f16&f64d+16&d+64c16&c64r64<b16&b64a+16&a+64g+16&g+64
r64f16&f64d+16&d+64f16&f64r8
r32.>d+16&d+64r64d16&d64<b32
>c8r64<a+16&a+64a32r64a+32b32.a+32r64g+16&g+64f16&f64d16&d64r64c16&c64
r16r64c16&c64r64c16&c64c16&c64d16&d64r64f16&f64g+16&g+64f16&f64r64g+16&g+64
f16e64d+32d64c+64c+64r64c64r4
r16a8&a32r64a16&a64g+32a8r64
a16&a64f8&f32r64d16&d64
r4g32g+8r64g+16&g+64g32g+8r64g+16&g+64c8&c32r64d16&d64
f8&f32r16.g+32a8r64a+16&a+64g+32a32.f16&f64r64c16&c64<a+8&a+32r64g+16&g+64
a16&a64>f16&f64r1
r16.g32g+8r64g+16&g+64g32g+8r64g+16&g+64
f8&f32r64d16&d64
r8r32.>d16&d64<g32g+8r64g+16&g+64a+8&a+32r64>c16&c64<g32g+8r64f16&f64
r16r64<a+16&a+64r64>c16&c64g+32a8r64a+16&a+64a32r64a+32a32.a+32r64f32
c32.<a+16&a+64>c16&c64r64<f16&f64
g+16&g+64a16&a64r2.r8
r32.>a+16&a+64r64g+16&g+64a+16&a+64
g+16&g+64r64a+16&a+64g+16&g+64a+16&a+64r64>c16&c64<g32g+8r64>f16&f64
r16r64g+16&g+64r64f16&f64d+16&d+64c16&c64r64<b16&b64a+16&a+64g+16&g+64
r64f16&f64d+16&d+64f16&f64r8
r32.>d+16&d+64r64d16&d64<b32
>c8r64<a+16&a+64a32r64a+32b32.a+32r64g+16&g+64f16&f64d16&d64r64c16&c64
r16r64c16&c64r64c16&c64c16&c64d16&d64r64f16&f64g+16&g+64f16&f64r64g+16&g+64
f16e64d+32d64c+64c+64r64c64r4
r16a8&a32r64a16&a64g+32a8r64
a16&a64f8&f32r64d16&d64
r4g32g+8r64g+16&g+64g32g+8r64g+16&g+64c8&c32r64d16&d64
f8&f32r16.g+32a8r64a+16&a+64g+32a32.f16&f64r64c16&c64<a+8&a+32r64g+16&g+64
a16&a64>f16&f64r1
r16.g32g+8r64g+16&g+64g32g+8r64g+16&g+64
f8&f32r64d16&d64
r8r32.>d16&d64<g32g+8r64g+16&g+64a+8&a+32r64>c16&c64<g32g+8r64f16&f64
r16r64<a+16&a+64r64>c16&c64g+32a8r64a+16&a+64a32r64a+32a32.a+32r64f32
c32.<a+16&a+64>c16&c64r64<f16&f64
g+16&g+64a16&a64r2.r8
r32.>a+16&a+64r64g+16&g+64a+16&a+64
g+16&g+64r64a+16&a+64g+16&g+64a+16&a+64r64>c16&c64<g32g+8r64>f16&f64
r16r64g+16&g+64r64f16&f64d+16&d+64c16&c64r64<b16&b64a+16&a+64g+16&g+64
r64f16&f64d+16&d+64f16&f64r8
r32.>d+16&d+64r64d16&d64<b32
>c8r64<a+16&a+64a32r64a+32b32.a+32r64g+16&g+64f16&f64d16&d64r64c16&c64
r16r64c16&c64r64c16&c64c16&c64d16&d64r64f16&f64g+16&g+64f16&f64r64g+16&g+64
f16e64d+32d64c+64c+64r64c64



.CHANNEL 4 mm_chfour
O5 @15 P11,11 @E13
r4>a8&a32r64a16&a64g+32a8r64a16&a64f8&f32r64d16&d64
r4g32g+8r64g+16&g+64g32g+8r64g+16&g+64c8&c32r64d16&d64
f8&f32r16.g+32a8r64a+16&a+64g+32a32.f16&f64r64c16&c64<a+8&a+32r64g+16&g+64
a16&a64>f16&f64r1
r16.g32g+8r64g+16&g+64g32g+8r64g+16&g+64
f8&f32r64d16&d64
r8r32.>d16&d64<g32g+8r64g+16&g+64a+8&a+32r64>c16&c64<g32g+8r64f16&f64
r16r64<a+16&a+64r64>c16&c64g+32a8r64a+16&a+64a32r64a+32a32.a+32r64f32
c32.<a+16&a+64>c16&c64r64<f16&f64
g+16&g+64a16&a64r2.r8
r32.>a+16&a+64r64g+16&g+64a+16&a+64
g+16&g+64r64a+16&a+64g+16&g+64a+16&a+64r64>c16&c64<g32g+8r64>f16&f64
r16r64g+16&g+64r64f16&f64d+16&d+64c16&c64r64<b16&b64a+16&a+64g+16&g+64
r64f16&f64d+16&d+64f16&f64r8
r32.>d+16&d+64r64d16&d64<b32
>c8r64<a+16&a+64a32r64a+32b32.a+32r64g+16&g+64f16&f64d16&d64r64c16&c64
r16r64c16&c64r64c16&c64c16&c64d16&d64r64f16&f64g+16&g+64f16&f64r64g+16&g+64
f16e64d+32d64c+64c+64r64c64r4
r16a8&a32r64a16&a64g+32a8r64
a16&a64f8&f32r64d16&d64
r4g32g+8r64g+16&g+64g32g+8r64g+16&g+64c8&c32r64d16&d64
f8&f32r16.g+32a8r64a+16&a+64g+32a32.f16&f64r64c16&c64<a+8&a+32r64g+16&g+64
a16&a64>f16&f64r1
r16.g32g+8r64g+16&g+64g32g+8r64g+16&g+64
f8&f32r64d16&d64
r8r32.>d16&d64<g32g+8r64g+16&g+64a+8&a+32r64>c16&c64<g32g+8r64f16&f64
r16r64<a+16&a+64r64>c16&c64g+32a8r64a+16&a+64a32r64a+32a32.a+32r64f32
c32.<a+16&a+64>c16&c64r64<f16&f64
g+16&g+64a16&a64r2.r8
r32.>a+16&a+64r64g+16&g+64a+16&a+64
g+16&g+64r64a+16&a+64g+16&g+64a+16&a+64r64>c16&c64<g32g+8r64>f16&f64
r16r64g+16&g+64r64f16&f64d+16&d+64c16&c64r64<b16&b64a+16&a+64g+16&g+64
r64f16&f64d+16&d+64f16&f64r8
r32.>d+16&d+64r64d16&d64<b32
>c8r64<a+16&a+64a32r64a+32b32.a+32r64g+16&g+64f16&f64d16&d64r64c16&c64
r16r64c16&c64r64c16&c64c16&c64d16&d64r64f16&f64g+16&g+64f16&f64r64g+16&g+64
f16e64d+32d64c+64c+64r64c64r4
r16a8&a32r64a16&a64g+32a8r64
a16&a64f8&f32r64d16&d64
r4g32g+8r64g+16&g+64g32g+8r64g+16&g+64c8&c32r64d16&d64
f8&f32r16.g+32a8r64a+16&a+64g+32a32.f16&f64r64c16&c64<a+8&a+32r64g+16&g+64
a16&a64>f16&f64r1
r16.g32g+8r64g+16&g+64g32g+8r64g+16&g+64
f8&f32r64d16&d64
r8r32.>d16&d64<g32g+8r64g+16&g+64a+8&a+32r64>c16&c64<g32g+8r64f16&f64
r16r64<a+16&a+64r64>c16&c64g+32a8r64a+16&a+64a32r64a+32a32.a+32r64f32
c32.<a+16&a+64>c16&c64r64<f16&f64
g+16&g+64a16&a64r2.r8
r32.>a+16&a+64r64g+16&g+64a+16&a+64
g+16&g+64r64a+16&a+64g+16&g+64a+16&a+64r64>c16&c64<g32g+8r64>f16&f64
r16r64g+16&g+64r64f16&f64d+16&d+64c16&c64r64<b16&b64a+16&a+64g+16&g+64
r64f16&f64d+16&d+64f16&f64r8
r32.>d+16&d+64r64d16&d64<b32
>c8r64<a+16&a+64a32r64a+32b32.a+32r64g+16&g+64f16&f64d16&d64r64c16&c64
r16r64c16&c64r64c16&c64c16&c64d16&d64r64f16&f64g+16&g+64f16&f64r64g+16&g+64
f16e64d+32d64c+64c+64r64c64r4
r16a8&a32r64a16&a64g+32a8r64
a16&a64f8&f32r64d16&d64
r4g32g+8r64g+16&g+64g32g+8r64g+16&g+64c8&c32r64d16&d64
f8&f32r16.g+32a8r64a+16&a+64g+32a32.f16&f64r64c16&c64<a+8&a+32r64g+16&g+64
a16&a64>f16&f64r1
r16.g32g+8r64g+16&g+64g32g+8r64g+16&g+64
f8&f32r64d16&d64
r8r32.>d16&d64<g32g+8r64g+16&g+64a+8&a+32r64>c16&c64<g32g+8r64f16&f64
r16r64<a+16&a+64r64>c16&c64g+32a8r64a+16&a+64a32r64a+32a32.a+32r64f32
c32.<a+16&a+64>c16&c64r64<f16&f64
g+16&g+64a16&a64r2.r8
r32.>a+16&a+64r64g+16&g+64a+16&a+64
g+16&g+64r64a+16&a+64g+16&g+64a+16&a+64r64>c16&c64<g32g+8r64>f16&f64
r16r64g+16&g+64r64f16&f64d+16&d+64c16&c64r64<b16&b64a+16&a+64g+16&g+64
r64f16&f64d+16&d+64f16&f64r8
r32.>d+16&d+64r64d16&d64<b32
>c8r64<a+16&a+64a32r64a+32b32.a+32r64g+16&g+64f16&f64d16&d64r64c16&c64
r16r64c16&c64r64c16&c64c16&c64d16&d64r64f16&f64g+16&g+64f16&f64r64g+16&g+64
f16e64d+32d64c+64c+64r64c64

.CHANNEL 5
P0,0


